lib/healthicons/icons/outline/devices/wheelchair_alt.svg

<svg fill="none" height="48" viewBox="0 0 48 48" width="48" xmlns="http://www.w3.org/2000/svg"><g fill="#333"><path d="m16.9998 32c0 .5523-.4478 1-1 1-.5523 0-1-.4477-1-1s.4477-1 1-1c.5522 0 1 .4477 1 1z"/><g clip-rule="evenodd" fill-rule="evenodd"><path d="m9.99976 32c0-3.3137 2.68624-6 6.00004-6 3.3137 0 6 2.6863 6 6s-2.6863 6-6 6c-3.3138 0-6.00004-2.6863-6.00004-6zm6.00004-4c-2.2092 0-4 1.7909-4 4s1.7908 4 4 4c2.2091 0 4-1.7909 4-4s-1.7909-4-4-4z"/><path d="m8 6v2h3.2192l3.5197 14.0787c-4.92763.62-8.73914 4.8255-8.73914 9.9213 0 5.5228 4.47714 10 10.00004 10 5.5228 0 10-4.4772 10-10 0-1.0452-.1604-2.053-.4578-3h5.458v7.1706c-1.1653.4118-2.0002 1.5231-2.0002 2.8294 0 1.6569 1.3431 3 3 3 1.6568 0 3-1.3431 3-3 0-1.3061-.8347-2.4173-1.9998-2.8292v-5.9283l6.0713 6.0712 3.5355-3.5355-1.4142-1.4142-2.1213 2.1213-6.0713-6.0713v-1.414c0-1.6569-1.3431-3-3-3h-1v-3c0-1.6569-1.3431-3-3-3h-10.4692l-2.75-11zm8.0308 13 .7576 3.0306c1.2737.0994 2.4804.4374 3.5755.9694h6.6361v-3c0-.5523-.4477-1-1-1zm14.9692 8h-6.3381c-.4223-.73-.9342-1.4017-1.5207-2h6.8588c.5523 0 1 .4477 1 1zm-15.0002-3c-4.4183 0-8.00004 3.5817-8.00004 8s3.58174 8 8.00004 8c4.4182 0 8-3.5817 8-8s-3.5818-8-8-8zm15 15c0-.5523.4477-1 1-1 .5522 0 1 .4477 1 1s-.4478 1-1 1c-.5523 0-1-.4477-1-1z"/></g></g></svg>

<svg width="48" height="48" viewBox="0 0 48 48" fill="none" xmlns="http://www.w3.org/2000/svg">
<path d="M16.9998 32C16.9998 32.5523 16.552 33 15.9998 33C15.4475 33 14.9998 32.5523 14.9998 32C14.9998 31.4477 15.4475 31 15.9998 31C16.552 31 16.9998 31.4477 16.9998 32Z" fill="#333333"/>
<path fill-rule="evenodd" clip-rule="evenodd" d="M9.99976 32C9.99976 28.6863 12.686 26 15.9998 26C19.3135 26 21.9998 28.6863 21.9998 32C21.9998 35.3137 19.3135 38 15.9998 38C12.686 38 9.99976 35.3137 9.99976 32ZM15.9998 28C13.7906 28 11.9998 29.7909 11.9998 32C11.9998 34.2091 13.7906 36 15.9998 36C18.2089 36 19.9998 34.2091 19.9998 32C19.9998 29.7909 18.2089 28 15.9998 28Z" fill="#333333"/>
<path fill-rule="evenodd" clip-rule="evenodd" d="M8 6V8H11.2192L14.7389 22.0787C9.81127 22.6987 5.99976 26.9042 5.99976 32C5.99976 37.5228 10.4769 42 15.9998 42C21.5226 42 25.9998 37.5228 25.9998 32C25.9998 30.9548 25.8394 29.947 25.542 29H31V36.1706C29.8347 36.5824 28.9998 37.6937 28.9998 39C28.9998 40.6569 30.3429 42 31.9998 42C33.6566 42 34.9998 40.6569 34.9998 39C34.9998 37.6939 34.1651 36.5827 33 36.1708V30.2425L39.0713 36.3137L42.6068 32.7782L41.1926 31.364L39.0713 33.4853L33 27.414V26C33 24.3431 31.6569 23 30 23H29V20C29 18.3431 27.6569 17 26 17H15.5308L12.7808 6H8ZM16.0308 19L16.7884 22.0306C18.0621 22.13 19.2688 22.468 20.3639 23H27V20C27 19.4477 26.5523 19 26 19H16.0308ZM31 27H24.6619C24.2396 26.27 23.7277 25.5983 23.1412 25H30C30.5523 25 31 25.4477 31 26V27ZM15.9998 24C11.5815 24 7.99976 27.5817 7.99976 32C7.99976 36.4183 11.5815 40 15.9998 40C20.418 40 23.9998 36.4183 23.9998 32C23.9998 27.5817 20.418 24 15.9998 24ZM30.9998 39C30.9998 38.4477 31.4475 38 31.9998 38C32.552 38 32.9998 38.4477 32.9998 39C32.9998 39.5523 32.552 40 31.9998 40C31.4475 40 30.9998 39.5523 30.9998 39Z" fill="#333333"/>
</svg>
